icons/circle-info.svg

<svg width="24" height="24" viewBox="0 0 24 24" fill="none" xmlns="http://www.w3.org/2000/svg">
<path fill-rule="evenodd" clip-rule="evenodd" d="M12 4C7.58172 4 4 7.58172 4 12C4 16.4183 7.58172 20 12 20C16.4183 20 20 16.4183 20 12C20 7.58172 16.4183 4 12 4ZM2 12C2 6.47715 6.47715 2 12 2C17.5228 2 22 6.47715 22 12C22 17.5228 17.5228 22 12 22C6.47715 22 2 17.5228 2 12ZM11 8C11 7.44772 11.4477 7 12 7H12.0095C12.5617 7 13.0095 7.44772 13.0095 8C13.0095 8.55228 12.5617 9 12.0095 9H12C11.4477 9 11 8.55228 11 8ZM12 11C12.5523 11 13 11.4477 13 12V16C13 16.5523 12.5523 17 12 17C11.4477 17 11 16.5523 11 16V12C11 11.4477 11.4477 11 12 11Z" fill="black"/>
</svg>

<svg
  width="24"
  height="24"
  viewBox="0 0 24 24"
  xmlns="http://www.w3.org/2000/svg"
>
  <path
    fill-rule="evenodd"
    clip-rule="evenodd"
    d="M12 4a8 8 0 1 0 0 16 8 8 0 0 0 0-16zM2 12C2 6.477 6.477 2 12 2s10 4.477 10 10-4.477 10-10 10S2 17.523 2 12zm9-4a1 1 0 0 1 1-1h.01a1 1 0 0 1 0 2H12a1 1 0 0 1-1-1zm1 3a1 1 0 0 1 1 1v4a1 1 0 1 1-2 0v-4a1 1 0 0 1 1-1z"
  />
</svg>
